X:1
T:4 Mélodies, Op. 51
T:Au cimetière
T:Gabriel Fauré(1845-1924)
T:Jean Richepin (1849-1926 ) "La Mer"
T:4 Mélodies Op. 51 À Madame Maurice Sulzbach
T:2. Au cimetière.
T:Creative Commons copyright waiver (CC0 1.0 Universal)
T:Creative Commons copyright waiver (CC0 1.0 Universal)
T:Creative Commons copyright waiver (CC0 1.0 Universal)
T:Creative Commons copyright waiver (CC0 1.0 Universal)
T:Creative Commons copyright waiver (CC0 1.0 Universal)
T:Creative Commons copyright waiver (CC0 1.0 Universal)
T:Creative Commons copyright waiver (CC0 1.0 Universal)
T:Creative Commons copyright waiver (CC0 1.0 Universal)
T:Creative Commons copyright waiver (CC0 1.0 Universal)
T:Creative Commons copyright waiver (CC0 1.0 Universal)
C:Gabriel Fauré
Z:Jean Richepin
Z:Creative Commons copyright waiver (CC0 1.0 Universal)
%%score 1 { ( 2 5 ) | ( 3 4 ) }
L:1/8
Q:1/4=66
M:3/4
K:F
V:1 treble nm="CHANT."
V:2 treble nm="PIANO."
V:5 treble 
V:3 bass 
V:4 bass 
V:1
"^Andante. (.)" z6 | z2 z2"^dolce  e  sereno" (A2 | A3 A B B | c3 c d d | c B A3 G | %5
w: |Heu-|reux qui meurt i-|ci, Ain- si que|les oi- seaux des|
 A2-) A z z (A | A2 A2 B B |"^*)La même en mi  pour Ténor." c3 c d d | c3 B A G | A2-) A z (A2 | %10
w: champs! * Son|corps, près des a-|\- mis Est mis dans|l'herbe et dans les|chants. _ Il|
 c3 c =B A | =B A A4) | (A A c2 =B A | A2- A) z (A2 | A3 A G F | G3 F F2- | F[Q:1/4=60] D F F E E | %17
w: dort d'un bon som-|meil ver- rmeil,|Sous le ciel ra- di-|eux _ Tous|ceux qu'il a con-|nus, ve- nus;|_ Lui font de longs a-|
 D2-) D z[Q:1/4=66] (D E | F4 F G | A3 A G2) | (G2 A A =B c | c6) |!mf! (c c B2 A A | %23
w: dieux. * A sa|croix les pa-|rents, pleu- rants,|Res- tent a- ge- nouil-|lés;|Et ses os, sous les|
!>(! B3 A!>)! G2 |!p! A2[Q:1/4=60] G G F F | E2-) E z[Q:1/4=66] (F2 | F3 F G G | A3) (A B B | %28
w: fleurs, de pleurs|Sont dou- ce- ment mouil-|lés. _ Cha-|cun, sur le bois|noir, Peut voir s'il|
 A A G3 F | G6) |!<(! (A2 G G F!<)! F |!>(! A G G2 F!>)![Q:1/4=60] D |!pp! F4 _E D | D6) | %34
w: é- tait jeune ou|non.|Et peut, a- vec de|vrais re- grets, L'ap- pe-|ler par son|nom.|
[Q:1/4=66] z6 | z2 z2!f! d2 |"^declamando" d3 d c d | d2 d2 c d | _e3 d c d | d4- d z | %40
w: |Com-|bien plus mal- chan-|ceux sont ceux qui|meu- rent à la|mé. _|
 ^d2 d d ^c d | ^d3 d ^c d | e ^d ^c3 d | ^d6 |!f! e2 e3 e | f e e d d2- | d e d c d e | f6 | %48
w: Et sous le flot pro-|fond S'en vont loin|du pa- ys ai-|mé!|Ah! pau- vres!|qui pour seuls lin- ceuls|_ Ont les go- ë- mons|verts,|
 e e e2 d e | f3 e d2- | d e e d e f | f6- | f6- |!>(! f2-!>)! f z z2 | z6 | z6 | %56
w: Où l'on roule in- con-|nu, tout nu,|_ Et les yeux grands ou-|verts!|_||||
 z2 z2"^dolce" (A2 | A3 A B B | c3 c d d | c B A3 G) | A2- A z z (A | A2 A2 B B | c3 c d d | %63
w: Heu-|reux qui meurt i-|ci, Ain- si que|les oi- seaux des|champs! * Son|corps, près des a-|\- mis Est mis dans|
 c3 B A G | A2-) A[Q:1/4=64] z!pp! (A2 | c3 c =B A | =B A A4) | (A A c2 =B A | %68
w: l'herbe et dans les|chants. _ Il|dort d'un bon som-|meil ver- rmeil,|Sous le ciel ra- di-|
 A2- A)[Q:1/4=62] z (A2 | A3 A G F | G3 F F2-) | F (D F[Q:1/4=58]"^poco rit." F E E | %72
w: eux _ Tous|ceux qu'il a con-|nus, ve- nus;|_ Lui font de longs a-|
[Q:1/4=66]"^a tempo" D6-) | D6 | z6 | z6 |] %76
w: dieux.|_|||
V:2
!pp! (.[DFA]2 .[DFA]2 .[DFA]2) | (.[DFA]2 .[DFA]2 .[DFA]2) | (.[DFA]2 .[DFA]2 .[FGB]2) | %3
 (.[EAc]2 .[EAc]2 .[ABd]2) | (.[Gc_e]2 .[Acf]2 .[Bd=e]2) | (.[A^ce]2 .[Ace]2 .A2) | %6
 (.[DFA]2 .[DFA]2 .[FGB]2) | (.[EAc]2 .[EAc]2 .[ABd]2) | (.[Gc_e]2 .[Acf]2 .[Bd=e]2) | %9
 (.[A^ce]2 .[Ace]2 .A2) | (.[Fcf]2 .[Fcf]2 .[F=Bf]2) | (.[E=Be]2 .[EAe]2 .[EAe]2) | %12
 (.[Fcf]2 .[Fcf]2 .[F=Bf]2) | (.[EAe]2 .[EAe]2 .[EAe]2) | (.[_EA_e]2 .[EAe]2 .[EGe]2) | %15
 (.[DGd]2 .[DGd]2 .[CFc]2) | (.[=B,F=B]2 .[B,FB]2 .[^CE^c]2) | (.[Dd]2 .[Dd]2 .[Dd]2) | %18
 [DFA]2 [DFA]2 [DFA]2 | [CFA]2 [CFA]2 [=B,EG]2 | [=B,DG]2 [CA]2 [F=B]2 | %21
!<(! [Fc]2 [Fc]2!<)! [_Ec]2 |!mf! [Dc]2 [DB]2 [DA]2 |!>(! [^CB]2 [CA]2!>)! [CG]2 | %24
!p! [=B,A]2 [B,G]2 [B,F]2 | [^CE]2 [A,CE]2 [A,CF]2 | [A,DF]2 [DF]2 [DG]2 | [CA]2 [FA]2 [_EB]2 | %28
 [DA]2 [CG]2 [_EF]2 | [_B,G]2 [CG]2 [DG]2 |!<(! [CA]2 [A,G]2!<)! [B,F]2 | %31
!>(! [CA]2 [A,G]2!>)! [B,F]2 |!pp! [B,F]2 [A,F]2 [G,_E]2 | [F,D]2 [F,A,D]2!<(! [F,A,D]2- | %34
 [F,A,D]2 [A,DA]2 !>![A,DA]2- |!<(! [A,DA]2 [DAd]2!<)! !>![DAd]2!<)! |!f! z2 (!>![_Ad]2 [Fc]2) | %37
 z2 (!>![_Ad]2 [Fc]2) | z2 (!>!_ed [Fc]2) | z2 (dcd^d) | z2 (!>![A^d]2 [^F^c]2) | %41
 z2 (!>![A^d]2 [^F^c]2) | z2 (!>!e^d [^F^c]2) | z2!<(! (^d^cde)!<)! | z2 (!>![_Be]2 [=G=d]2) | %45
 z2 (!>![Be]2 [Fd]2) | z2 (!>![Bd]2 [Ge]2) | z2 (!>![=Bf]2 [^Gd]2) | z2 (!>![_Be]2 [Gd]2) | %49
 z2 (!>![Be]2 [Fd]2) | z2 (!>![Bd]2 [Ge]2) | z2 (!>!f2 =e2) | z2 (!>!_e2 d2) | z2 ((!>!_d2 c2)) | %54
 z2 (!>!_c2 B2) |!pp! z2 (.[FA]2 .[FA]2) | z2 (.[FA]2 .[FA]2) | z2 (.[FA]2 .[FB]2) | %58
 z2 (.[Ac]2 .[Ad]2) | z2 (.[Af]2 .[Ge]2) | z2 (.[Ae]2 .[^CA]2) | z2 (.[FA]2 .[FB]2) | %62
 z2 (.[Ac]2 .[Ad]2) | z2 (.[Af]2 .[Be]2) | z2 (.[Ae]2 .[^CA]2) |!pp! z2 (.[Fcf]2 .[F=Bf]2) | %66
 (.[E=Be]2 .[EAe]2 .[EAe]2) | (.[Fcf]2 .[Fcf]2 .[F=Bf]2) | (.[EAe]2 .[EAe]2 .[EAe]2) | %69
 (.[_EA_e]2 .[EAe]2 .[EGe]2) | (.[DGd]2 .[DGd]2 .[CFc]2) | (.[=B,F=B]2 .[B,FB]2 .[^CE^c]2) | %72
 (.[Dd]2 .[DFd]2 .[=CG=c]2) | (.[DA]2 .[A,A]2 .[G,C]2) | [F,A,D]6 | [F,A,D]6 |] %76
V:3
 z6 | z6 | z6 | z6 | z6 | z6 | z6 | z6 | z6 | z6 | [C,A,]4 [D,^G,]2 | [A,,^C,A,]6 | %12
 [=C,A,]4 [D,^G,]2 | [A,,^C,A,]6 | [=C,F,]6 | [B,,F,]4 [A,,C,]2 | [G,,D,]4 [A,,G,]2 | [D,,A,,F,]6 | %18
 z6 | z2 D,2 E,2 | F,2 [E,F,]2 [D,G,]2 | [C,A,]2 [C,A,]2 [B,,G,]2 | [A,,^F,]2 [B,,F,]2 [C,F,]2 | %23
 [G,,E,]2 [A,,E,]2 [B,,E,]2 | [F,,D,]2 [G,,D,]2 [D,G,]2 | [A,,A,]2 z2 z2 | z2 [G,A,]2 [F,B,]2 | %27
 [E,A,]2 [D,F,]2 [C,G,]2 | [F,A,]2 [_E,B,]2 [C,A,]2 | [G,,D,]2 [G,,_E,]2 [G,,F,]2 | %30
 [F,,_E,]2 [C,E,]2 [D,F,]2 | [F,,_E,]2 [C,E,]2 [D,F,]2 | [G,,D,]2 [A,,C,]2 B,,2 | %33
 [D,,A,,]2 [D,,A,,]2"^cresc.  molto" [D,,A,,]2 | !>!D,,A,, [D,,A,,F,]2 !>![D,,A,,-F,-]2 | %35
 [A,,F,]2 [D,,A,,F,]2 !>![D,,A,,F,]2 |!ped! (3!>!F,,_A,,_A, ([C,F,]2!ped-up! [A,D]2) | %37
!ped! (3!>!F,,_A,,_A, ([C,F,]2!ped-up! [A,D]2) |!ped! (3!>!F,,_A,,_A, ([C,F,]2!ped-up! [A,D]2) | %39
!ped! (3!>!F,,_A,,_A, ([C,F,]2!ped-up! [^F,C]2) | %40
!ped! (3!>!^F,,=A,,=A, ([^C,^F,]2!ped-up! [A,^D]2) | %41
!ped! (3!>!^F,,A,,A, ([^C,^F,]2!ped-up! [A,^D]2) | %42
!ped! (3!>!^F,,A,,A, ([^C,^F,]2!ped-up! [A,^D]2) | %43
!ped! (3!>!^F,,A,,A, ([^C,^F,]2!ped-up! [^^F,^C]2) | %44
!ped! (3!>!G,,_B,,_B, ([=D,G,]2 [B,E]2)!ped-up! |!ped! (3!>!D,,B,,B, ([D,F,]2!ped-up! [B,D]2) | %46
!ped! (3!>!G,,B,,B, ([E,G,]2 [B,D]2)!ped-up! |!ped! (3!>!E,,=B,,=B, [D,^G,]2 [B,F]2!ped-up! | %48
!ped! (3!>!G,,_B,,_B, [D,=G,]2 [B,E]2!ped-up! |!ped! (3!>!D,,B,,B, [D,F,]2!ped-up! [B,D]2 | %50
!ped! (3!>!G,,B,,B, [E,G,]2 [B,D]2!ped-up! |!ped! (3!>!_A,,FF, [B,D]F,!ped-up! =E2 | %52
!ped! (3!>!G,,_EF, [G,=B,]F,!ped-up! D2 |!ped! (3!>!F,,_D_D,"^dimin." [F,_A,]D,!ped-up! C2 | %54
!ped! (3!>!_G,,_C=D, [E,_A,]_A,,-!ped-up! [A,,B,]2 | =A,,6 | A,,6 | A,,6 | A,,6 | A,,6 | A,,6 | %61
 A,,6 | A,,6 | A,,6 | A,,6 | [C,A,]4 [D,^G,]2 | [A,,^C,A,]6 | [=C,A,]4 [D,^G,]2 | [A,,^C,A,]6 | %69
 [=C,F,]6 | [B,,F,]4 [A,,C,]2 | [G,,D,]4"^poco rit." [A,,G,]2 |"^a  tempo" [D,,A,,F,]4 [E,,A,,]2 | %73
 [F,,A,,]4 [E,,A,,]2 | [D,,A,,]6 | [D,,A,,]6 |] %76
V:4
 x6 | x6 | x6 | x6 | x6 | x6 | x6 | x6 | x6 | x6 | F,,6 | x6 | F,,6 | x6 | x6 | x6 | x6 | x6 | x6 | %19
 x6 | x6 | x6 | x6 | x6 | x6 | x6 | x6 | x6 | x6 | x6 | x6 | x6 | x6 | x6 | x6 | !>!D,,A,, z4 | %36
 x6 | x6 | x6 | x6 | x6 | x6 | x6 | x6 | x6 | x6 | x6 | x6 | x6 | x6 | x6 | _A,,2 x4 | G,,2 x4 | %53
 F,,2 x4 | _G,,2 x _A,, x2 | x2 [A,D]2 [A,D]2 | x2 [A,D]2 [A,D]2 | x2 [A,D]2 [G,D]2 | %58
 x2 [CE]2 [B,F]2 | x2 C2 [B,D]2 | x2 ^C2 [E,G,]2 | x2 [A,D]2 [G,D]2 | x2 [CE]2 [B,F]2 | %63
 x2 C2 [B,D]2 | x2 ^C2 [E,G,]2 | F,,6 | x6 | F,,6 | x6 | x6 | x6 | x6 | x6 | x6 | x6 | x6 |] %76
V:5
 x6 | x6 | x6 | x6 | x6 | x6 | x6 | x6 | x6 | x6 | x6 | x6 | x6 | x6 | x6 | x6 | x6 | x6 | x6 | %19
 x6 | x6 | x6 | x6 | x6 | x6 | x6 | x6 | x6 | x6 | x6 | x6 | x6 | x6 | x6 | x6 | x6 | x6 | x6 | %38
 x2 _A2 x2 | x2 _A2 =A2 | x6 | x6 | x2 A2 x2 | x2 A2 ^A2 | x6 | x6 | x6 | x6 | x6 | x6 | x6 | %51
 x2 [GB]4 | x2 [F=B]4 | x2 [FA]4 | x2 [=DF]4 | x6 | x6 | x6 | x6 | x6 | x6 | x6 | x6 | x6 | x6 | %65
 x6 | x6 | x6 | x6 | x6 | x6 | x6 | x6 | x6 | x6 | x6 |] %76

